src/Pure-Dark/16/symbolic/places/folder-network-symbolic.svg

<?xml version="1.0" encoding="UTF-8" standalone="no"?>
<svg
   width="16"
   height="16"
   version="1.1"
   id="svg1"
   sodipodi:docname="folder-network-symbolic.svg"
   inkscape:version="1.4.2 (ebf0e940d0, 2025-05-08)"
   xmlns:inkscape="http://www.inkscape.org/namespaces/inkscape"
   xmlns:sodipodi="http://sodipodi.sourceforge.net/DTD/sodipodi-0.dtd"
   xmlns="http://www.w3.org/2000/svg"
   xmlns:svg="http://www.w3.org/2000/svg">
  <defs
     id="defs1">
    <style
       id="current-color-scheme"
       type="text/css">
        .ColorScheme-Text { color:#f2f2f2; }
        .ColorScheme-NeutralText { color:#f67400; }
        .ColorScheme-PositiveText { color:#37c837; }
        .ColorScheme-NegativeText { color:#f44336; }
        .ColorScheme-Highlight { color:#3daee9; }
     </style>
  </defs>
  <sodipodi:namedview
     id="namedview1"
     pagecolor="#ffffff"
     bordercolor="#000000"
     borderopacity="0.25"
     inkscape:showpageshadow="2"
     inkscape:pageopacity="0.0"
     inkscape:pagecheckerboard="0"
     inkscape:deskcolor="#d1d1d1"
     inkscape:zoom="49.6875"
     inkscape:cx="8"
     inkscape:cy="8"
     inkscape:window-width="1920"
     inkscape:window-height="1010"
     inkscape:window-x="0"
     inkscape:window-y="0"
     inkscape:window-maximized="1"
     inkscape:current-layer="svg1" />
  <path
     id="path1"
     style="fill:currentColor"
     class="ColorScheme-Text"
     d="M 12.5 0 A 2.508 2.508 0 0 0 10 2.5 C 10 3.875 11.125 5 12.5 5 C 13.875 5 15 3.875 15 2.5 C 15 1.125 13.875 0 12.5 0 z M 12.5 1 C 13.334 1 14 1.666 14 2.5 C 14 3.334 13.334 4 12.5 4 C 11.666 4 11 3.334 11 2.5 C 11 1.666 11.666 1 12.5 1 z M 9.2402344 3.7382812 L 5.3867188 5.8808594 A 2.487 2.487 0 0 0 3.5 5 A 2.508 2.508 0 0 0 1 7.5 C 1 8.875 2.125 10 3.5 10 C 4.255 10 4.9267188 9.6521406 5.3867188 9.1191406 L 9.2402344 11.261719 C 9.3622344 10.945719 9.530375 10.655625 9.734375 10.390625 L 5.8730469 8.2460938 C 5.9460469 8.0100937 6 7.761 6 7.5 C 6 7.239 5.9480469 6.9909062 5.8730469 6.7539062 L 9.734375 4.609375 A 3.495 3.495 0 0 1 9.2402344 3.7382812 z M 3.5 6 C 4.334 6 5 6.666 5 7.5 C 5 8.334 4.334 9 3.5 9 C 2.666 9 2 8.334 2 7.5 C 2 6.666 2.666 6 3.5 6 z M 12.5 10 A 2.508 2.508 0 0 0 10 12.5 C 10 13.875 11.125 15 12.5 15 C 13.875 15 15 13.875 15 12.5 C 15 11.125 13.875 10 12.5 10 z M 12.5 11 C 13.334 11 14 11.666 14 12.5 C 14 13.334 13.334 14 12.5 14 C 11.666 14 11 13.334 11 12.5 C 11 11.666 11.666 11 12.5 11 z " />
</svg>

<svg width="16" height="16" version="1.1" xmlns="http://www.w3.org/2000/svg">
 <path d="m15 2.5c0-1.375-1.125-2.5-2.5-2.5a2.508 2.508 0 0 0-2.5 2.5c0 1.375 1.125 2.5 2.5 2.5s2.5-1.125 2.5-2.5zm0 10c0-1.375-1.125-2.5-2.5-2.5a2.508 2.508 0 0 0-2.5 2.5c0 1.375 1.125 2.5 2.5 2.5s2.5-1.125 2.5-2.5zm-1-10c0 0.834-0.666 1.5-1.5 1.5s-1.5-0.666-1.5-1.5 0.666-1.5 1.5-1.5 1.5 0.666 1.5 1.5zm0 10c0 0.834-0.666 1.5-1.5 1.5s-1.5-0.666-1.5-1.5 0.666-1.5 1.5-1.5 1.5 0.666 1.5 1.5zm-4.266-7.89a3.495 3.495 0 0 1-0.494-0.872l-3.853 2.143a2.487 2.487 0 0 0-1.887-0.881 2.508 2.508 0 0 0-2.5 2.5c0 1.375 1.125 2.5 2.5 2.5 0.755 0 1.427-0.347 1.887-0.88l3.853 2.142c0.122-0.316 0.29-0.606 0.494-0.871l-3.86-2.145c0.073-0.236 0.126-0.485 0.126-0.746s-0.052-0.509-0.127-0.746zm-4.734 2.89c0 0.834-0.666 1.5-1.5 1.5s-1.5-0.666-1.5-1.5 0.666-1.5 1.5-1.5 1.5 0.666 1.5 1.5z" color="#000000" fill="#f2f2f2" font-family="sans-serif" font-weight="400" overflow="visible" style="font-feature-settings:normal;font-variant-alternates:normal;font-variant-caps:normal;font-variant-ligatures:normal;font-variant-numeric:normal;font-variant-position:normal;isolation:auto;mix-blend-mode:normal;shape-padding:0;text-decoration-color:#000000;text-decoration-line:none;text-decoration-style:solid;text-indent:0;text-orientation:mixed;text-transform:none" white-space="normal"/>
</svg>
